!!!Genre:	Skotshne
!!!Mode:	Minor
!!!Listening/dance:	listening
!!!:	*g:dor; *G:; *g:dor
!!!One_Mode:	no
**kern
*I"P1
*clefG2
*k[b-e-]
*g:dor
=20
4g
4G
=21:|!|:
*>C
*k[b-]
16cc#XLL
16dd
16ee
16ffJJ
16eeLL
16dd
16cc#
16b-JJ
=22
16cc#XLL
16dd
16ee
16ffJJ
16eeLL
16dd
16cc#
16ddJJ
=23
4.ee
8ee
=24
16eeLL
16ff
16bb-
16aaJJ
16ggLL
16ff
16ee
16ddJJ
=25
4.cc#X
8a
=26
8ddL
16cc#XL
16b-JJ
16aLL
16g
16b-
16aJJ
=27
4g
4G
*>eM
=:|!
*-
